X:1
T:Title
%%score { 1 | 2 }
L:1/8
M:6/8
K:Eb
V:1 treble nm="Grand Piano"
V:2 bass 
V:1
 z3 z2[Q:1/4=90] E | G2 G G2 G | [GB]2 [FA] G2 E | [DF]2 [DF] [DF]2 [DF] |[M:5/8] [EG]2 [DF] E2 | %5
[M:1/8] E |[M:3/4] G2 G G2 G | [EGB]2 [B,FA] [B,EG]2 [G,E] | [A,CF]2 [CFA] [B,EG]2 [A,DF] | E6 | %10
 B3 B GE | [DF]3 .E3 | B3 B GE | [EG]3 .[DF]3 | [B,EG]3 [B,EG] [B,FA][EGB] | [EAc]3 [EGB]2 [B,EG] | %16
 [A,CF]2 [CFA] [B,EG]2 [A,DF] |[M:5/8] [G,E]-[G,E]- [G,E]3 |] %18
V:2
 z3 z2 [E,G,] | [E,B,E]2 [E,B,E] [E,B,E]2 [E,B,E] | [E,B,]2 [E,B,] [E,B,E]2 [E,G,] | %3
 [B,,B,]2 [B,,B,] [B,,B,]2 [B,,B,] |[M:5/8] [B,,B,]2 [B,,A,] [E,G,]2 |[M:1/8] [E,G,] | %6
[M:3/4] [E,B,E]2 [E,B,E] [E,B,E]2 [E,B,E] | E,2 E, E,2 E, | A,,2 A,, B,,2 B,, | [E,G,]6 | %10
 [E,G,E]3 [E,G,E] [E,B,E][E,G,] | [B,,A,]3 .[E,G,]3 | [E,G,E]3 [E,G,E] [E,B,E][E,G,] | %13
 [B,,B,]3 .[B,,B,]3 | E,3 E, E,E, | A,,2 C, E,2 E, | A,,2 A,, B,,2 B,, |[M:5/8] E,-E,- E,3 |] %18

